X:68
T: Ich wollt einmal freien gehn (Band 1), S. 199
N: P0843
O: Lothringen
S: PINCK, Louis: Verklingende Weisen, Bd 1, Metz 1928]
R: Liebe, Verfhrung]
M: 2/2
L: 1/8
K: E
=D2 | =G2G2F2F2 | E2E2=D2
D2 | =G2G2BAAA | B4z2
=GA | B2BB=cBA2 | B2A2=G2
G2 | A2A2B2F2 | E4=D2
EE=G2A2 | B6F2=G2F2 | E4z2

@@@ Tune index: 7618
